icon-themes/breeze_svg/svx/res/marker-rectplus9-1.svg

<svg height="9" viewBox="0 0 9 9" width="9" xmlns="http://www.w3.org/2000/svg"><path d="m0 0v9h9v-9zm4 2h1v2h2v1h-2v2h-1v-2h-2v-1h2z" fill="#1d99f3"/><path d="m4 1v3h-3v1h3v3h1v-3h3v-1h-3v-3z" fill="#fff"/></svg>

<?xml version="1.0" encoding="UTF-8" standalone="no"?>
<svg
   xmlns:dc="http://purl.org/dc/elements/1.1/"
   xmlns:cc="http://creativecommons.org/ns#"
   xmlns:rdf="http://www.w3.org/1999/02/22-rdf-syntax-ns#"
   xmlns:svg="http://www.w3.org/2000/svg"
   xmlns="http://www.w3.org/2000/svg"
   xmlns:sodipodi="http://sodipodi.sourceforge.net/DTD/sodipodi-0.dtd"
   xmlns:inkscape="http://www.inkscape.org/namespaces/inkscape"
   id="svg8856"
   version="1.1"
   viewBox="0 0 9 9"
   height="9"
   width="9"
   sodipodi:docname="marker-rectplus9-1.svg"
   inkscape:version="0.92pre3 r">
  <sodipodi:namedview
     pagecolor="#ffffff"
     bordercolor="#666666"
     borderopacity="1"
     objecttolerance="20"
     gridtolerance="10000"
     guidetolerance="10"
     inkscape:pageopacity="0"
     inkscape:pageshadow="2"
     inkscape:window-width="1600"
     inkscape:window-height="1671"
     id="namedview8428"
     showgrid="true"
     inkscape:snap-grids="true"
     inkscape:snap-page="false"
     showguides="true"
     inkscape:snap-text-baseline="false"
     inkscape:snap-to-guides="true"
     inkscape:pagecheckerboard="false"
     inkscape:showpageshadow="false"
     inkscape:zoom="20.082024"
     inkscape:cx="10.621665"
     inkscape:cy="-3.2272703"
     inkscape:window-x="1600"
     inkscape:window-y="55"
     inkscape:window-maximized="0"
     inkscape:current-layer="svg8856">
    <inkscape:grid
       type="xygrid"
       id="grid13502"
       empspacing="5" />
  </sodipodi:namedview>
  <defs
     id="defs8850" />
  <metadata
     id="metadata8853">
    <rdf:RDF>
      <cc:Work
         rdf:about="">
        <dc:format>image/svg+xml</dc:format>
        <dc:type
           rdf:resource="http://purl.org/dc/dcmitype/StillImage" />
        <dc:title></dc:title>
      </cc:Work>
    </rdf:RDF>
  </metadata>
  <path
     id="rect4127-4"
     d="M 0,0 V 9 H 9 V 0 Z M 4,2 H 5 V 4 H 7 V 5 H 5 V 7 H 4 V 5 H 2 V 4 h 2 z"
     style="color:#000000;display:inline;overflow:visible;visibility:visible;fill:#1d99f3;fill-opacity:1;fill-rule:nonzero;stroke:none;stroke-width:2;marker:none;enable-background:accumulate"
     inkscape:connector-curvature="0" />
  <path
     style="color:#000000;display:inline;overflow:visible;visibility:visible;fill:#ffffff;fill-opacity:1;fill-rule:nonzero;stroke:none;stroke-width:2;marker:none;enable-background:accumulate"
     d="M 4,1 V 4 H 1 V 5 H 4 V 8 H 5 V 5 H 8 V 4 H 5 V 1 Z"
     id="rect4324"
     inkscape:connector-curvature="0" />
</svg>
